public/favicon.svg

<svg width="1920" height="1920" fill="none" xmlns="http://www.w3.org/2000/svg"><path fill="url(#a)" d="M0 0h1920v1920H0z"/><path fill-rule="evenodd" clip-rule="evenodd" d="M463.915 804.386c100.122-421.637 429.933-532.08 891.905-453.001a372.145 372.145 0 0 1 20.62 3.645c-325.2-188.897-748.569-119.624-994.663 180.622C316.022 615.856 268.976 705.251 240 798.541c87.728-46.561 163.412-48.377 223.915 5.845Zm338.246 442.104c-115.088-63.16-269.474-305.963-122.106-576.841 150.347-276.351 491.235-317.193 602.105-307.368-94.03 0-374.39 96.131-437.894 345.263-27.19 106.667-21.053 276.491-11.228 370.526 5.572 53.33-5.614 136.14-30.877 168.42Zm327.669-581.052c418.24 312.983 95.44 937.542-486.191 901.082-28.311 1.86-55.95.81-82.905-3.17 461.966 79.08 788.286-30.03 890.966-449.37 6.62-48.12 9.16-99.93 7.63-155.413-1.53-55.491-14.73-118.292-39.6-188.379-27.85-78.515-61.81-132.89-92.64-157.726-40.02-32.24-145.3-54.721-197.26 52.976Zm-7.02 11.229c115.09 63.157 269.48 305.964 122.11 576.843-150.35 276.35-491.235 317.19-602.113 307.37 94.036 0 374.393-96.14 437.903-345.27 27.19-106.66 21.05-276.487 11.22-370.522-5.57-53.334 5.62-136.141 30.88-168.421ZM569.156 1571.77c461.964 79.08 791.784-31.36 891.904-453 60.5 54.22 136.18 52.41 223.91 5.85-28.97 93.28-76.02 182.68-141.77 262.88-246.1 300.25-669.463 369.52-994.67 180.63a375.82 375.82 0 0 0 20.626 3.64ZM1281.33 356.634c-581.625-36.458-904.433 588.103-486.187 901.086-51.961 107.7-157.245 85.21-197.265 52.97-30.83-24.83-64.79-79.21-92.638-157.72-24.866-70.09-38.07-132.89-39.599-188.379-1.528-55.487 1.009-107.292 7.626-155.411C575.95 389.836 902.27 280.725 1364.24 359.804c-26.96-3.976-54.6-5.031-82.91-3.17Z" fill="#fff"/><defs><linearGradient id="a" x1="3.582" y1="0" x2="1923.58" y2="1920" gradientUnits="userSpaceOnUse"><stop stop-color="#81DB03"/><stop offset=".7" stop-color="#15A1BF"/></linearGradient></defs></svg>

<svg width="1920" height="1920" viewBox="0 0 1920 1920" fill="none" xmlns="http://www.w3.org/2000/svg">
<rect width="1920" height="1920" fill="url(#paint0_linear_31_9)"/>
<path fill-rule="evenodd" clip-rule="evenodd" d="M463.915 804.386C564.037 382.749 893.848 272.306 1355.82 351.385C1362.74 352.41 1369.61 353.622 1376.44 355.03C1051.24 166.133 627.871 235.406 381.777 535.652C316.022 615.856 268.976 705.251 240 798.541C327.728 751.98 403.412 750.164 463.915 804.386ZM802.161 1246.49C687.073 1183.33 532.687 940.527 680.055 669.649C830.402 393.298 1171.29 352.456 1282.16 362.281C1188.13 362.281 907.77 458.412 844.266 707.544C817.076 814.211 823.213 984.035 833.038 1078.07C838.61 1131.4 827.424 1214.21 802.161 1246.49ZM1129.83 665.438C1548.07 978.421 1225.27 1602.98 643.639 1566.52C615.328 1568.38 587.689 1567.33 560.734 1563.35C1022.7 1642.43 1349.02 1533.32 1451.7 1113.98C1458.32 1065.86 1460.86 1014.05 1459.33 958.567C1457.8 903.076 1444.6 840.275 1419.73 770.188C1391.88 691.673 1357.92 637.298 1327.09 612.462C1287.07 580.222 1181.79 557.741 1129.83 665.438ZM1122.81 676.667C1237.9 739.824 1392.29 982.631 1244.92 1253.51C1094.57 1529.86 753.685 1570.7 642.807 1560.88C736.843 1560.88 1017.2 1464.74 1080.71 1215.61C1107.9 1108.95 1101.76 939.123 1091.93 845.088C1086.36 791.754 1097.55 708.947 1122.81 676.667ZM569.156 1571.77C1031.12 1650.85 1360.94 1540.41 1461.06 1118.77C1521.56 1172.99 1597.24 1171.18 1684.97 1124.62C1656 1217.9 1608.95 1307.3 1543.2 1387.5C1297.1 1687.75 873.737 1757.02 548.53 1568.13C555.364 1569.53 562.236 1570.75 569.156 1571.77ZM1281.33 356.634C699.705 320.176 376.897 944.737 795.143 1257.72C743.182 1365.42 637.898 1342.93 597.878 1310.69C567.048 1285.86 533.088 1231.48 505.24 1152.97C480.374 1082.88 467.17 1020.08 465.641 964.591C464.113 909.104 466.65 857.299 473.267 809.18C575.95 389.836 902.27 280.725 1364.24 359.804C1337.28 355.828 1309.64 354.773 1281.33 356.634Z" fill="white"/>
<defs>
<linearGradient id="paint0_linear_31_9" x1="3.58247" y1="1.24052e-05" x2="1923.58" y2="1920" gradientUnits="userSpaceOnUse">
<stop stop-color="#81DB03"/>
<stop offset="0.7" stop-color="#15A1BF"/>
</linearGradient>
</defs>
</svg>
